X: 12
T:Old Hag You Have Killed Me
N: page 3
N: heptatonic
R:Jig
M:6/8
L:1/8
K:G
G|"D"FED "Am"c2A|"G"ded "Am"cAG|ABA ABG|ABA A2G|\
"D"FED "Am"c2A|"G"ded "D"cAF|GAF GcA|GAF "G"G2::
e|"D"fef "G"gfg|"D"afd "Am"cAG|ABA A2G|ABA Ade|\
"D"fef "G"gfg|"D"afd "Am"cAF|GAF GcA|"G"GAG G2:|
